gui-js/apps/minsky-electron/src/assets/unlocked.svg

<svg xmlns="http://www.w3.org/2000/svg" viewBox="0 0 8 8"><path d="m1 0c-.554 0-1 .446-1 1v6c0 .554.446 1 1 1h6c.554 0 1-.446 1-1v-6c0-.554-.446-1-1-1h-6m3 1.125c.791 0 1.488.532 1.695 1.295.044.163-.052.331-.215.375-.163.044-.331-.052-.375-.215-.135-.497-.59-.844-1.105-.844-.632 0-1.146.513-1.146 1.145v.709h2.842c.169 0 .305.136.305.305v2.676c0 .169-.136.305-.305.305h-3.391c-.169 0-.305-.136-.305-.305v-2.676c0-.147.104-.27.242-.299v-.715c0-.969.789-1.756 1.758-1.756m0 3.404c-.237 0-.43.191-.43.428 0 .126.055.238.141.316l-.113.604c-.006.033.015.059.049.059h.715c.034 0 .055-.026.049-.059l-.115-.609c.082-.078.135-.188.135-.311 0-.237-.193-.428-.43-.428" fill="#4d4d4d"/></svg>

<?xml version="1.0" encoding="UTF-8" standalone="no"?>
<svg
   xmlns:dc="http://purl.org/dc/elements/1.1/"
   xmlns:cc="http://creativecommons.org/ns#"
   xmlns:rdf="http://www.w3.org/1999/02/22-rdf-syntax-ns#"
   xmlns:svg="http://www.w3.org/2000/svg"
   xmlns="http://www.w3.org/2000/svg"
   xmlns:sodipodi="http://sodipodi.sourceforge.net/DTD/sodipodi-0.dtd"
   xmlns:inkscape="http://www.inkscape.org/namespaces/inkscape"
   viewBox="0 0 8 8"
   version="1.1"
   id="svg4"
   sodipodi:docname="Antu_emblem-unlocked.svg"
   inkscape:version="1.0.1 (3bc2e813f5, 2020-09-07)"
   width="8"
   height="8">
  <metadata
     id="metadata10">
    <rdf:RDF>
      <cc:Work
         rdf:about="">
        <dc:format>image/svg+xml</dc:format>
        <dc:type
           rdf:resource="http://purl.org/dc/dcmitype/StillImage" />
        <dc:title></dc:title>
      </cc:Work>
    </rdf:RDF>
  </metadata>
  <defs
     id="defs8" />
  <sodipodi:namedview
     pagecolor="#ffffff"
     bordercolor="#666666"
     borderopacity="1"
     objecttolerance="10"
     gridtolerance="10"
     guidetolerance="10"
     inkscape:pageopacity="0"
     inkscape:pageshadow="2"
     inkscape:window-width="703"
     inkscape:window-height="480"
     id="namedview6"
     showgrid="false"
     inkscape:zoom="89.375"
     inkscape:cx="4"
     inkscape:cy="4"
     inkscape:window-x="437"
     inkscape:window-y="60"
     inkscape:window-maximized="0"
     inkscape:current-layer="svg4"
     fit-margin-top="0"
     fit-margin-left="0"
     fit-margin-right="0"
     fit-margin-bottom="0" />
  <path
     d="M 1,0 C 0.446,0 0,0.446 0,1 V 7 C 0,7.554 0.446,8 1,8 H 7 C 7.554,8 8,7.554 8,7 V 1 C 8,0.446 7.554,0 7,0 H 1 m 3,1.125 c 0.791,0 1.488,0.532 1.695,1.295 C 5.739,2.583 5.643,2.751 5.48,2.795 5.317,2.839 5.149,2.743 5.105,2.58 4.97,2.083 4.515,1.736 4,1.736 3.368,1.736 2.854,2.249 2.854,2.881 V 3.59 h 2.842 c 0.169,0 0.305,0.136 0.305,0.305 v 2.676 c 0,0.169 -0.136,0.305 -0.305,0.305 H 2.305 C 2.136,6.876 2,6.74 2,6.571 V 3.895 C 2,3.748 2.104,3.625 2.242,3.596 V 2.881 C 2.242,1.912 3.031,1.125 4,1.125 m 0,3.404 c -0.237,0 -0.43,0.191 -0.43,0.428 0,0.126 0.055,0.238 0.141,0.316 L 3.598,5.877 C 3.592,5.91 3.613,5.936 3.647,5.936 h 0.715 c 0.034,0 0.055,-0.026 0.049,-0.059 L 4.296,5.268 C 4.378,5.19 4.431,5.08 4.431,4.957 4.431,4.72 4.238,4.529 4.001,4.529"
     fill="#4d4d4d"
     id="path2" />
</svg>
